public/logo.svg

<svg width="290" height="292" viewBox="0 0 290 292" fill="none" xmlns="http://www.w3.org/2000/svg">
<path d="M289.086 241.583L159.306 5.04008C158.807 4.12932 157.422 4.49002 157.43 5.52884L157.897 65.8094C157.898 65.9762 157.941 66.1399 158.022 66.2859L214.631 168.579C214.798 168.88 214.798 169.247 214.631 169.548L174.722 241.579C174.352 242.245 174.834 243.064 175.596 243.064L288.21 243.064C288.97 243.064 289.452 242.249 289.086 241.583Z" fill="white"/>
<path d="M144.268 97C145.038 95.6667 146.962 95.6667 147.732 97L178.909 151C179.679 152.333 178.717 154 177.177 154H114.823C113.283 154 112.321 152.333 113.091 151L144.268 97Z" fill="white"/>
<path d="M176.818 180.641C178.358 180.641 179.32 182.308 178.55 183.641L147.373 237.641C146.603 238.974 144.679 238.974 143.909 237.641L112.732 183.641C111.962 182.308 112.925 180.641 114.464 180.641L176.818 180.641Z" fill="white"/>
<path d="M0.812562 241.582L130.593 5.04005C131.092 4.12929 132.477 4.48999 132.469 5.52881L132.002 65.8094C132.001 65.9761 131.958 66.1399 131.877 66.2858L75.2681 168.579C75.1013 168.88 75.1014 169.246 75.2684 169.548L115.177 241.579C115.547 242.245 115.065 243.063 114.303 243.063L1.68928 243.063C0.929131 243.063 0.446922 242.249 0.812562 241.582Z" fill="white"/>
</svg>

<svg xmlns="http://www.w3.org/2000/svg" width="290" height="292" fill="none"><path fill="#fff" d="M289.086 241.583 159.306 5.04c-.499-.91-1.884-.55-1.876.489l.467 60.28c.001.167.044.33.125.477l56.609 102.293a1 1 0 0 1 0 .969l-39.909 72.031a1 1 0 0 0 .874 1.485H288.21a1 1 0 0 0 .876-1.481"/><path fill="#fff" d="M144.268 97c.77-1.333 2.694-1.333 3.464 0l31.177 54c.77 1.333-.192 3-1.732 3h-62.354c-1.54 0-2.502-1.667-1.732-3zM176.818 180.641c1.54 0 2.502 1.667 1.732 3l-31.177 54c-.77 1.333-2.694 1.333-3.464 0l-31.177-54c-.77-1.333.193-3 1.732-3z"/><path fill="#fff" d="M.813 241.582 130.593 5.04c.499-.91 1.884-.55 1.876.489l-.467 60.28a1 1 0 0 1-.125.477L75.268 168.579a1 1 0 0 0 0 .969l39.909 72.031a1 1 0 0 1-.874 1.484H1.689a1 1 0 0 1-.876-1.481"/></svg>
